layouts/icon-pack/spell_arclight.svg

<?xml version="1.0" encoding="UTF-8"?>
<svg width="1200pt" height="1200pt" version="1.1" viewBox="0 0 1200 1200" xmlns="http://www.w3.org/2000/svg">
 <g fill="#fff">
  <path d="m406.22 964.52c93.434 49.539 202.29 61.445 304.22 33.281 4.9102-1.3359 9.0625-4.625 11.48-9.1055 2.418-4.4766 2.8945-9.75 1.3164-14.59l-3.7031-11.086c-1.5039-4.5352-4.6992-8.3164-8.9219-10.551s-9.1445-2.7539-13.742-1.4492c-89.543 24.555-185.07 14.105-267.19-29.227-5.3359-2.7891-11.926-0.83984-14.883 4.4062l-13.008 22.852c-1.5039 2.6289-1.8828 5.7578-1.0508 8.668 0.83594 2.9141 2.8125 5.3672 5.4805 6.8008z"/>
  <path d="m987.3 742.97c1.4727-4.0508 1.2344-8.5312-0.66016-12.402-1.8984-3.875-5.2891-6.8086-9.3945-8.1289l-16.125-5.25c-3.9023-1.2578-8.1406-0.95703-11.828 0.83984-3.6875 1.793-6.5352 4.9453-7.9531 8.793-26.637 71.703-75.227 133.17-138.84 175.64l-54.328-82.031c-10.031-15.117-33.586-5.2969-29.883 12.469 2.1758 10.387 5.5508 20.484 10.055 30.094l104.04 221.32c3.4062 7.2695 8.8203 13.418 15.598 17.719 6.7812 4.3008 14.648 6.5781 22.676 6.5625h13.055c7.2031-0.003906 14.16-2.625 19.582-7.3672 5.4219-4.7461 8.9375-11.297 9.8945-18.438 0.96094-7.1367-0.70312-14.383-4.6797-20.391l-79.102-119.39c72.457-48.309 127.74-118.34 157.9-200.04z"/>
  <path d="m395.74 787.5-67.969 54.211c-50.695-57.113-82.156-128.71-89.938-204.68s8.5117-152.46 46.578-218.67c3.2578-5.6016 4.2617-12.234 2.8008-18.547-1.457-6.3125-5.2656-11.832-10.652-15.438l-7.8984-5.25c-3.2422-2.168-7.2227-2.9258-11.031-2.0977-3.8086 0.82812-7.1211 3.1641-9.1719 6.4805-46.25 75.168-67.203 163.18-59.781 251.12 7.418 87.945 42.816 171.2 101.01 237.55l-223.45 178.43c-13.883 11.066-21.965 27.855-21.961 45.609v1.1484c0 16.074 6.6328 31.441 18.328 42.469 11.695 11.031 27.422 16.75 43.469 15.809 16.051-0.94141 31-8.457 41.328-20.777l270.66-324.54c12.352-14.836-7.2188-34.828-22.312-22.828z"/>
  <path d="m1012.8 600c0.39453-101.79-37.215-200.06-105.47-275.58l152.84-146.93c6.5742-6.3125 10.332-15.004 10.426-24.121 0.089844-9.1133-3.4883-17.879-9.9336-24.324l-24.188-24.234c-7.0586-7.0312-16.852-10.605-26.777-9.7734-9.9297 0.82813-18.992 5.9805-24.785 14.086l-210.14 294.82c-3.3008 4.7656-4.0195 10.863-1.9141 16.266 2.1055 5.4023 6.7578 9.4023 12.418 10.676 5.6562 1.2734 11.574-0.34766 15.793-4.3242l71.156-68.414c59.516 66.461 92.254 152.64 91.875 241.85 0 5.9766-0.21094 11.953-0.49219 17.93h-25.453c-19.57 0-22.43 28.125-3.2344 32.133l220.85 44.93v-77.062h-143.39c0.16406-5.9766 0.42187-11.977 0.42187-17.93z"/>
  <path d="m723.74 220.57c2.9766 18.32-9.4688 35.586-27.789 38.559s-35.586-9.4688-38.559-27.789c-2.9766-18.324 9.4648-35.586 27.789-38.562 18.32-2.9727 35.586 9.4688 38.559 27.793"/>
  <path d="m867.35 610.08-87.609-17.109c-1.4141-35.336-13.207-69.473-33.91-98.148-20.703-28.672-49.395-50.609-82.492-63.07s-69.133-14.891-103.61-6.9922c-5.4727 1.2539-10.258 4.5508-13.383 9.2188-3.1211 4.6641-4.3477 10.344-3.4219 15.883l11.25 67.219c0.77734 4.7109-1.8516 9.3242-6.3008 11.059-4.4531 1.7305-9.5078 0.10938-12.121-3.8867l-44.039-67.922-107.09-157.5c21.445-23.438 40.641-42.516 73.617-65.625 3.0977-2.0312 4.8867-5.5586 4.6875-9.2578-0.26953-3.1289-2.0078-5.9453-4.6836-7.5859-2.6797-1.6406-5.9766-1.9141-8.8867-0.73438-31.402 12.312-61.16 28.469-88.594 48.094l-127.55-187.5c-13.5-19.957-36.02-31.926-60.117-31.945h-29.461c-6.9727 0.03125-13.672 2.7109-18.746 7.4961-5.0703 4.7852-8.1328 11.316-8.5703 18.277-0.4375 6.957 1.7891 13.824 6.2227 19.203l332.84 403.71c-23.617 31.809-36.023 70.547-35.273 110.16 1.5938 94.781 78.07 173.02 172.8 176.67 34.113 1.3477 67.902-7.043 97.422-24.188 29.523-17.145 53.555-42.336 69.289-72.633 1.9766-3.8398 2.4922-8.2656 1.4492-12.457-1.043-4.1914-3.5742-7.8594-7.1211-10.324l-23.32-16.289c-3.1719-2.2148-4.543-6.2305-3.3828-9.918 1.1602-3.6914 4.5781-6.2031 8.4453-6.207l128.91 4.4766c13.898 0.72656 16.383-19.5 2.7422-22.172z"/>
 </g>
</svg>

<?xml version="1.0" encoding="UTF-8" standalone="no"?>
<!DOCTYPE svg PUBLIC "-//W3C//DTD SVG 1.1//EN" "http://www.w3.org/Graphics/SVG/1.1/DTD/svg11.dtd">
<svg width="100%" height="100%" viewBox="0 0 512 512" version="1.1" xmlns="http://www.w3.org/2000/svg" xmlns:xlink="http://www.w3.org/1999/xlink" xml:space="preserve" xmlns:serif="http://www.serif.com/" style="fill-rule:evenodd;clip-rule:evenodd;stroke-linejoin:round;stroke-miterlimit:2;">
    <g transform="matrix(1,0,0,1,-44.2765,-44.2778)">
        <g transform="matrix(0.460641,0,0,0.460641,23.8809,23.8816)">
            <path d="M406.22,964.52C499.654,1014.06 608.51,1025.96 710.44,997.801C715.35,996.465 719.503,993.176 721.92,988.695C724.338,984.219 724.815,978.945 723.236,974.105L719.533,963.019C718.029,958.484 714.834,954.703 710.611,952.468C706.389,950.234 701.467,949.715 696.869,951.019C607.326,975.574 511.799,965.124 429.679,921.792C424.344,919.003 417.753,920.952 414.796,926.198L401.788,949.05C400.285,951.679 399.906,954.808 400.738,957.718C401.574,960.633 403.55,963.086 406.218,964.519L406.22,964.52Z" style="fill:white;fill-rule:nonzero;"/>
        </g>
        <g transform="matrix(0.460641,0,0,0.460641,23.8809,23.8816)">
            <path d="M987.3,742.97C988.773,738.919 988.534,734.439 986.64,730.568C984.741,726.693 981.351,723.759 977.245,722.439L961.12,717.189C957.218,715.931 952.98,716.232 949.292,718.029C945.605,719.822 942.757,722.974 941.339,726.822C914.702,798.525 866.112,859.992 802.499,902.462L748.171,820.431C738.14,805.314 714.585,815.134 718.288,832.9C720.464,843.287 723.839,853.384 728.343,862.994L832.383,1084.31C835.789,1091.58 841.204,1097.73 847.981,1102.03C854.762,1106.33 862.629,1108.61 870.657,1108.6L883.712,1108.6C890.915,1108.59 897.872,1105.97 903.294,1101.23C908.716,1096.48 912.232,1089.93 913.189,1082.79C914.15,1075.65 912.486,1068.41 908.509,1062.4L829.407,943.009C901.864,894.7 957.147,824.669 987.307,742.969L987.3,742.97Z" style="fill:white;fill-rule:nonzero;"/>
        </g>
        <g transform="matrix(0.460641,0,0,0.460641,23.8809,23.8816)">
            <path d="M395.74,787.5L327.771,841.711C277.076,784.598 245.615,713.001 237.833,637.031C230.051,561.061 246.345,484.571 284.411,418.361C287.669,412.759 288.673,406.127 287.212,399.814C285.755,393.501 281.946,387.982 276.56,384.376L268.661,379.126C265.419,376.958 261.439,376.2 257.63,377.028C253.822,377.856 250.509,380.192 248.459,383.509C202.209,458.677 181.256,546.689 188.678,634.629C196.096,722.574 231.494,805.829 289.688,872.179L66.238,1050.61C52.355,1061.67 44.273,1078.46 44.277,1096.22L44.277,1097.37C44.277,1113.44 50.909,1128.81 62.605,1139.84C74.3,1150.87 90.027,1156.59 106.074,1155.64C122.125,1154.7 137.074,1147.19 147.402,1134.87L418.062,810.327C430.414,795.491 410.843,775.499 395.75,787.499L395.74,787.5Z" style="fill:white;fill-rule:nonzero;"/>
        </g>
        <g transform="matrix(0.460641,0,0,0.460641,23.8809,23.8816)">
            <path d="M1012.8,600C1013.2,498.21 975.585,399.94 907.33,324.42L1060.17,177.49C1066.74,171.178 1070.5,162.486 1070.6,153.369C1070.69,144.256 1067.11,135.49 1060.66,129.045L1036.47,104.811C1029.42,97.78 1019.62,94.206 1009.7,95.038C999.768,95.866 990.705,101.018 984.912,109.124L774.772,403.944C771.472,408.709 770.753,414.807 772.858,420.21C774.964,425.612 779.616,429.612 785.276,430.886C790.932,432.159 796.85,430.538 801.069,426.561L872.225,358.147C931.741,424.608 964.479,510.787 964.1,599.997C964.1,605.974 963.889,611.95 963.608,617.927L938.155,617.927C918.585,617.927 915.725,646.052 934.921,650.06L1155.77,694.99L1155.77,617.928L1012.38,617.928C1012.55,611.952 1012.8,605.951 1012.8,599.998L1012.8,600Z" style="fill:white;fill-rule:nonzero;"/>
        </g>
        <g transform="matrix(0.460641,0,0,0.460641,23.8809,23.8816)">
            <path d="M723.74,220.57C726.717,238.89 714.271,256.156 695.951,259.129C677.631,262.102 660.365,249.66 657.392,231.34C654.415,213.016 666.857,195.754 685.181,192.778C703.501,189.805 720.767,202.247 723.74,220.571" style="fill:white;fill-rule:nonzero;"/>
        </g>
        <g transform="matrix(0.460641,0,0,0.460641,23.8809,23.8816)">
            <path d="M867.35,610.08L779.741,592.971C778.327,557.635 766.534,523.498 745.831,494.823C725.128,466.151 696.436,444.214 663.339,431.753C630.242,419.292 594.206,416.862 559.729,424.761C554.256,426.015 549.471,429.312 546.346,433.98C543.225,438.644 541.998,444.324 542.924,449.863L554.174,517.082C554.951,521.793 552.323,526.406 547.873,528.141C543.42,529.871 538.366,528.25 535.752,524.254L491.713,456.332L384.623,298.832C406.068,275.394 425.264,256.316 458.24,233.207C461.338,231.176 463.127,227.648 462.928,223.949C462.658,220.82 460.92,218.004 458.244,216.363C455.564,214.723 452.268,214.449 449.357,215.629C417.955,227.941 388.198,244.098 360.763,263.723L233.213,76.223C219.713,56.266 197.193,44.297 173.096,44.278L143.635,44.278C136.663,44.309 129.963,46.989 124.889,51.774C119.819,56.559 116.757,63.09 116.319,70.051C115.882,77.008 118.108,83.875 122.542,89.254L455.382,492.964C431.765,524.773 419.359,563.511 420.109,603.124C421.703,697.905 498.179,776.144 592.909,779.794C627.022,781.142 660.811,772.751 690.331,755.606C719.854,738.461 743.886,713.27 759.62,682.973C761.596,679.133 762.112,674.707 761.069,670.516C760.026,666.325 757.495,662.657 753.948,660.192L730.628,643.903C727.456,641.688 726.085,637.672 727.245,633.985C728.405,630.294 731.823,627.782 735.69,627.778L864.6,632.255C878.498,632.981 880.983,612.755 867.343,610.083L867.35,610.08Z" style="fill:white;fill-rule:nonzero;"/>
        </g>
    </g>
</svg>
